X:140
T: Wedding Fiddler
S: Reavy Collection: "Music of Corktown"
Z: B.Black
M: 4/4
L: 1/8
R: reel
K: Ador
AB|c2 ed cAGc|Add^c d=cAB|c2 ed cAG=F|EDCE D2 :|
ef|gage d2 ^cd|eaa^g a=gef|gage dfed|cAdc A2 :|
